X: 1
T: Tam Bain's Lum
R: shottish, strathspey
Z: 2010 John Chambers <jc:trillian.mit.edu>
S: printed MS of unknown origin
M: C|
L: 1/8
K: D
A>B \
|: "D"d2 f<a A>d d<d | "D"A>B d>e f>d f<a \
|1,3 "A7"e2 c<e A>c c<c | "A7"A>c e<c a>g f>e \
:|2,4 "A7"A>c c<c A>c e>c | "A7"a>g f>e d2 :|
|: f>g \
| "D"a2 f>d A>d d<d | "D"A>d f>d a>d f>d \
|1,3 "A7"g2 e>c A>c c<c | "A7"A>c e>c g2 \
:|2,4 "G"G>B B<B "A7"A>c e>c | "A7"a>g f>e d2 :|
|: A>B \
| "D"d<d d>e f>A A>e | "D"f>e d>e f2 A>B \
|1,3 "A7"c<c c>d e>c A>c | "A7"a>g f>e d2 \
:|2,4 "G"G>B B<B "A7"A>c e>c | "A7"a>g f>e d2 :|
|: d>B \
| "D"A>d d<d "D7"A>d d<d | "G"G>B B<B B4 \
| "A7"A>c c<c c>B A>c | "A7"A>c e>c "D"d2 d>B |
| "D"A>d d<d "D7"A>d d<d | "G"G>B B<B g>f e>c \
| "A7"A>c c<c A>c e>c | "A7"a>g f>e d2 :|
